!!!OTL: Das deutsche Gloria.
!!!ARE: Europa, Mitteleuropa, Deutschland
!!!SCT: A0622
!!!TXL: @@GMH
!!!YEM: Copyright 1995, estate of Helmut Schaffrath.
**kern	**text
*M3/1	*
*met(C3)	*
*clefC4	*
*k[b-]	*
*F:ion	*
!LO:TX:a:t=jon.	!
!LO:TX:a:t=P:2r, 2r in the source:problem	!
{2F	Al-
=1	=1
1A	-lein
2B-	Gott
1c	in
2B-	der
=2	=2
1A	höh
2G	ſei
1A	ehr,
2A	vnd
=3	=3
1A	danck
2G	fur
*lig	*
2B-	ſei-
2A	.
*Xlig	*
2G	-ne
=4	=4
*lig	*
!LO:TX:a:t=*	!
2F	gna-
4E	.
4D	.
2E	.
*Xlig	*
1F}	-de,}
{2F	Dar-
=5	=5
1A	-umb
2B-	das
1c	nun
2B-	und
=6	=6
1A	nim-
2G	-mer-
1A	-mehr
2A	vns
=7	=7
1A	rü-
2G	-ren
*lig	*
2B-	kan
2A	.
*Xlig	*
2G	kein
=8	=8
*lig	*
!LO:TX:a:t=*	!
2F	ſcha-
4E	.
4D	.
2E	.
*Xlig	*
1F}	-de.}
{2F	Ein
=9	=9
1F	wol-
2G	-ge-
1B-	-falln
2A	Gott
=10	=10
1G	an
2F	vns
1G	hat,
2G	nu
=11	=11
1A	iſt
2B-	gros
1c	fried
2B-	on
=12	=12
1A	vn-
2G	-ter-
1A}	-las,
{2F	all
=13	=13
*lig	*
2G	ſeh-
2G	-de
*Xlig	*
2B-	hat
1A	nun
2G	ein
=14	=14
*lig	*
1F	en-
2E	.
*Xlig	*
1F;}	-de.
==	==
!!!GTL: Geistliche Volkslieder
!!!AGN: Romanze, Ballade, Lied, religioeses Lied
!! Schumanns Gsgb 1539 fol 87.
!!!ONB: ESAC (Essen Associative Code) Database: ALTDEU
!!!AMT: simple triple
!!!AIN: vox
!!!EED: Helmut Schaffrath
!!!EEV: 1.0
!!!AMD: Ionian
!!!URL-scan: https://rosdok.uni-rostock.de/mcrviewer/recordIdentifier/rosdok_ppn738218359/iview2/phys_0803.iview2?x=112.2280193537249&y=2807.248275449034&scale=0.7106933083589261&rotation=0&layout=singlePageLayout&logicalDiv=log_0007
!!!ENC: Anna Maria Matuszewska
!!!EEV: 2024/25/03
*-	*-
